X:1
T:Title
%%score { ( 1 4 ) | ( 2 3 ) }
L:1/8
M:3/4
K:F
V:1 treble nm="Grand Piano"
V:4 treble 
V:2 bass 
V:3 bass 
V:1
 z2 z2[Q:1/4=96] FG | A3 A _AA | A2 c2 cc | d3 d cA |[M:2/4] [EG]4 |[M:1/4] GA | %6
[M:3/4] B3 [Ge] [Fd][Ec] | c2 A2 [DF][DFG] | [CFA]3 [Fc] [EG][CF] |[M:2/4] [CF]4 | %10
[M:1/4] [DF][Fd] |[M:3/4] [Fd]3 [Ff] [Fe][Fd] | c2 A2 GA | B3 [EB] AB |[M:2/4] c4 |[M:1/4] Ff | %16
[M:3/4] f3 f .e>E | [FAc]2 [FA]2 [DF][DFG] | [CFA]3 [Fc] [B,EG][A,CF] |[M:2/4] [A,CF]4 |] %20
V:2
 z2 z2 [F,A,][F,B,F] | [F,CF]3 [F,CF] [F,=B,F][K:treble][F,B,F] | C2 z2 z2 | %3
 [B,F]3 [B,F][K:bass] [F,A,F][F,CF] |[M:2/4] [C,C]4 |[M:1/4][K:treble] [B,CE][A,CF] | %6
[M:3/4][K:bass] [G,CE]3 [C,B,] [C,B,][C,B,] | A,2 z2 z2 | C,3 [C,A,] [C,B,][F,A,] | %9
[M:2/4] [F,A,]4 |[M:1/4] [B,,B,][B,,B,] |[M:3/4] [B,,B,]3 [B,,D] [B,,C][B,,B,] | %12
 [F,F]2- [F,CF]2 [B,CE][A,CF] | [G,CE]3[K:bass] [C,C] [F,CF][K:treble][G,CE] |[M:2/4] [A,CF]4 | %15
[M:1/4] [A,C][A,CF] |[M:3/4] [B,DF]3 [B,DF] [B,^CF].[B,DB] | F,4 z2 | C,3 [C,A,] C,F,, | %19
[M:2/4] F,,4 |] %20
V:3
 x6 | x5[K:treble] x | [F,F]2- [F,A,F]2 [F,A,F][F,A,F] | x4[K:bass] x2 |[M:2/4] x4 | %5
[M:1/4][K:treble] x2 |[M:3/4][K:bass] x6 | [F,F]2- [F,CF]2 B,,B,, | x6 |[M:2/4] x4 |[M:1/4] x2 | %11
[M:3/4] x6 | A,2 z2 z2 | x3[K:bass] x2[K:treble] x |[M:2/4] x4 |[M:1/4] x2 |[M:3/4] x6 | %17
 z2 C2 B,,B,, | x6 |[M:2/4] x4 |] %20
V:4
 x6 | x6 | x6 | x6 |[M:2/4] x4 |[M:1/4] x2 |[M:3/4] x6 | x6 | x6 |[M:2/4] x4 |[M:1/4] x2 | %11
[M:3/4] x6 | x6 | x6 |[M:2/4] x4 |[M:1/4] x2 |[M:3/4] z2 z2 z d | x6 | x6 |[M:2/4] x4 |] %20

